X: 33
T:Bonnie Gallo
R:
Z:added by Alf 
M:3/4
L:1/4
K:G
|B2 F|A2 G|E G2|D3|D2E|G2B|
A2B|A3|B2F|A2G|EG2|D3|
D2E|G2B|A2G|G3|d2d|B2G|e2G|
d3|d2d|B2A|GFG|A3|B2F|
A2G|EG2|D3|D2E|G2B|A3|G3||
